svgs/light/mountain.svg

<svg xmlns="http://www.w3.org/2000/svg" viewBox="0 0 512 512"><!-- Font Awesome Pro 6.0.0-alpha2 by @fontawesome - https://fontawesome.com License - https://fontawesome.com/license (Commercial License) --><path d="M503.193 393.783L280.074 44.246C274.865 36.082 265.433 32 256 32C246.568 32 237.136 36.082 231.927 44.246L8.806 393.783C-2.307 411.193 -2.946 433.207 7.14 451.234C17.072 468.973 35.921 480 56.314 480H455.685C476.078 480 494.929 468.973 504.861 451.234C514.945 433.193 514.306 411.18 503.193 393.783ZM256.002 66.006L346.64 208H256C250.968 208 246.218 210.375 243.203 214.406L208 261.344L172.796 214.406C170.763 211.688 167.824 210.094 164.658 209.102L256.002 66.006ZM476.939 435.602C472.658 443.248 464.513 448 455.685 448H56.314C47.488 448 39.343 443.248 35.066 435.609C30.746 427.887 31.019 418.457 35.779 411L144.935 240H152L195.203 297.594C198.218 301.625 202.968 304 208 304S217.781 301.625 220.796 297.594L264 240H367.066L476.226 411.01C480.982 418.455 481.252 427.887 476.939 435.602Z"/></svg>

<svg xmlns="http://www.w3.org/2000/svg" viewBox="0 0 512 512"><!--! Font Awesome Pro 6.3.0 by @fontawesome - https://fontawesome.com License - https://fontawesome.com/license (Commercial License) Copyright 2023 Fonticons, Inc. --><path d="M503.2 393.8L280.1 44.25C274.9 36.08 265.4 32 256 32C246.6 32 237.1 36.08 231.9 44.25L8.807 393.8c-11.11 17.41-11.75 39.42-1.666 57.45C17.07 468.1 35.92 480 56.31 480h399.4c20.39 0 39.24-11.03 49.18-28.77C514.9 433.2 514.3 411.2 503.2 393.8zM256 66.01L346.6 208H256c-5.031 0-9.781 2.375-12.8 6.406L208 261.3L172.8 214.4C170.8 211.7 167.8 210.1 164.7 209.1L256 66.01zM476.9 435.6C472.7 443.2 464.5 448 455.7 448H56.31c-8.826 0-16.97-4.752-21.25-12.39C30.75 427.9 31.02 418.5 35.78 411L144.9 240H152l43.2 57.59C198.2 301.6 202.1 304 208 304s9.781-2.375 12.8-6.406L264 240h103.1l109.2 171C480.1 418.5 481.3 427.9 476.9 435.6z"/></svg>
